src/assets/icons/pul-icon-home.svg

<!-- Generated by IcoMoon.io -->
<svg version="1.1" xmlns="http://www.w3.org/2000/svg" width="16" height="16" viewBox="0 0 16 16">
<title>home</title>
<path d="M13.667 9c-0.184 0-0.333 0.149-0.333 0.333v6h-3.333v-4.333c0-0.184-0.149-0.333-0.333-0.333h-3.333c-0.184 0-0.333 0.149-0.333 0.333v4.333h-3.333v-6.333c0-0.184-0.149-0.333-0.333-0.333s-0.333 0.149-0.333 0.333v6.667c0 0.185 0.149 0.333 0.333 0.333h4c0.184 0 0.333-0.149 0.333-0.333v-4.333h2.667v4.333c0 0.184 0.149 0.333 0.333 0.333h4c0.184 0 0.333-0.149 0.333-0.333v-6.333c0-0.184-0.149-0.333-0.333-0.333z"></path>
<path d="M15.903 8.431l-7.667-7.667c-0.13-0.13-0.341-0.13-0.471 0l-7.667 7.667c-0.13 0.13-0.13 0.341 0 0.471s0.341 0.13 0.471 0l7.431-7.431 7.431 7.431c0.065 0.065 0.151 0.097 0.236 0.097s0.171-0.033 0.236-0.097c0.13-0.13 0.13-0.341 0-0.471z"></path>
<path d="M10.667 2h2v2c0 0.184 0.149 0.333 0.333 0.333s0.333-0.149 0.333-0.333v-2.333c0-0.184-0.149-0.333-0.333-0.333h-2.333c-0.184 0-0.333 0.149-0.333 0.333s0.149 0.333 0.333 0.333z"></path>
</svg>

<svg xmlns="http://www.w3.org/2000/svg" viewBox="0 0 16 16">
    <path d="M13.667 9a.333.333 0 0 0-.333.333v6h-3.333V11a.333.333 0 0 0-.333-.333H6.335a.333.333 0 0 0-.333.333v4.333H2.669V9a.333.333 0 1 0-.666 0v6.667c0 .185.149.333.333.333h4a.333.333 0 0 0 .333-.333v-4.333h2.667v4.333c0 .184.149.333.333.333h4a.333.333 0 0 0 .333-.333V9.334a.333.333 0 0 0-.333-.333z"/>
    <path d="M15.903 8.431L8.236.764a.333.333 0 0 0-.471 0L.098 8.431a.333.333 0 0 0 .471.471L8 1.471l7.431 7.431a.333.333 0 0 0 .472 0 .333.333 0 0 0 0-.471zM10.667 2h2v2a.333.333 0 1 0 .666 0V1.667A.333.333 0 0 0 13 1.334h-2.333a.333.333 0 1 0 0 .666z"/>
</svg>
